packages/brickdoc-design-icons/assets/basic/screen-full.svg

<svg width="1em" height="1em" viewBox="0 0 24 24" fill="none" xmlns="http://www.w3.org/2000/svg">
<path fill-rule="evenodd" clip-rule="evenodd" d="M14 3C14 2.44772 14.4477 2 15 2H21C21.5523 2 22 2.44772 22 3V9C22 9.55228 21.5523 10 21 10C20.4477 10 20 9.55228 20 9V4H15C14.4477 4 14 3.55228 14 3Z" fill="currentColor"/>
<path fill-rule="evenodd" clip-rule="evenodd" d="M3 14C3.55228 14 4 14.4477 4 15V20H9C9.55228 20 10 20.4477 10 21C10 21.5523 9.55228 22 9 22H3C2.44772 22 2 21.5523 2 21V15C2 14.4477 2.44772 14 3 14Z" fill="currentColor"/>
<path d="M21 3L14.5 9.5" stroke="currentColor" stroke-width="2" stroke-linecap="round" stroke-linejoin="round"/>
<path fill-rule="evenodd" clip-rule="evenodd" d="M10.2071 13.7929C10.5976 14.1834 10.5976 14.8166 10.2071 15.2071L3.70711 21.7071C3.31658 22.0976 2.68342 22.0976 2.29289 21.7071C1.90237 21.3166 1.90237 20.6834 2.29289 20.2929L8.79289 13.7929C9.18342 13.4024 9.81658 13.4024 10.2071 13.7929Z" fill="currentColor"/>
</svg>

<svg  viewBox="0 0 24 24" width="1em" height="1em" fill="none" xmlns="http://www.w3.org/2000/svg"><path fill-rule="evenodd" clip-rule="evenodd" d="M14 3a1 1 0 0 1 1-1h6a1 1 0 0 1 1 1v6a1 1 0 1 1-2 0V4h-5a1 1 0 0 1-1-1ZM3 14a1 1 0 0 1 1 1v5h5a1 1 0 1 1 0 2H3a1 1 0 0 1-1-1v-6a1 1 0 0 1 1-1Z" fill="#34313c"/><path d="m21 3-6.5 6.5" stroke="#34313c" stroke-width="2" stroke-linecap="round" stroke-linejoin="round"/><path fill-rule="evenodd" clip-rule="evenodd" d="M10.207 13.793a1 1 0 0 1 0 1.414l-6.5 6.5a1 1 0 0 1-1.414-1.414l6.5-6.5a1 1 0 0 1 1.414 0Z" fill="#34313c"/></svg>
